X:1
T:Title
%%score { ( 1 5 ) | ( 2 3 4 ) }
L:1/8
M:4/4
K:Bb
V:1 treble nm="Grand Piano"
V:5 treble 
V:2 bass 
V:3 bass 
V:4 bass 
V:1
 z4 z2[Q:1/4=108] [B,D]>[CE] | [DF]>D [DF]>[DB] [Fd]2 [FB]2 | [Ec]2 [EG]4 [=Ec]>[EB] | %3
 A2 G2 F2 e2 | d6 D>[CE] | [DF]>D [DF]>[DB] [Fd]2 [Fc]>[FB] |[M:7/8] [Ec]>[EG][Gc]>[Gd] [Ge]3 | %7
[M:1/4] [FA]>[EG] |[M:4/4] F>d e>e d2 c>c |[M:3/4] [B,DB]4 z2 |[M:1/4] d>c | %11
[M:4/4] [DB]2 [DF]4 (3[_A-d][Ac]d | [Ge]2 z2 B,2 A>G | F2 F2 G2 E2 | D6[K:bass] z2 | %15
 [B,DF]>[B,D] [DF]>[DB] [Fd]2 [Fc]>[FB] |[M:9/8] [Ec]>[EG][Gc]- [Gc]/[Gd]/ [Ge]2- [Ge][FA]>G | %17
[M:4/4] F>d e>e d2 c>c |[M:3/4] [DB]6 |] %19
V:2
 z4 z2 [B,,F,]>[B,,E,] | [B,,B,]>[B,,B,] [B,,B,]>[B,,B,] [B,,B,]2 [D,B,]2 | %2
 [E,G,]2 [E,C]4 [C,C]>[C,C] | [F,CF]2 [F,A,E]2 [F,B,D]2[K:treble] [A,CF]2 | %4
 [B,F]6[K:bass] [B,,F,B,]>[B,,F,] | [B,,B,]>[B,,B,] [B,,B,]>[B,,B,] [B,,B,]2 [C,A,]>[C,B,] | %6
[M:7/8] [E,G,]>[E,C][E,C]>[D,=B,] [C,C]3 |[M:1/4] [E,C]>[D,B,] | %8
[M:4/4] [F,B,D]>[K:treble][F,B,F] [F,CF]>[A,CF] [B,F]2[K:bass] [F,A,E]>[F,A,E] |[M:3/4] B,,4 z2 | %10
[M:1/4][K:treble] F>E |[M:4/4][K:bass] z4 z2 B,2 | [E,B,]2 [E,B,]2 E,2 E>E | %13
 [F,B,D]2 [F,B,D]2 [F,A,E]2 [F,C]2 | [B,,F,]2 z2 z4 | %15
 C,>B,, [B,,B,]>[B,,B,] [B,,B,]2 [C,A,]>[D,B,] | %16
[M:9/8] [E,G,]>[E,C][E,C]- [E,C]/[D,=B,]/ [C,C]2- [C,C][E,C]>[E,B,E] | %17
[M:4/4] [F,B,D]>[F,B,F] [F,CF]>[F,CF] [F,B,F]2 [F,A,F]>[F,A,E] |[M:3/4] [B,,B,]6 |] %19
V:3
 x8 | x8 | x8 | x6[K:treble] x2 | x6[K:bass] x2 | x8 |[M:7/8] x7 |[M:1/4] x2 | %8
[M:4/4] x3/2[K:treble] x9/2[K:bass] x2 |[M:3/4] x6 |[M:1/4][K:treble] x2 | %11
[M:4/4][K:bass] [B,,B,]2 [B,,B,]2 [B,,B,]2 (3:2:2z2 _A | z4 z2 [E,B,]2 | x8 | %14
 B,2- [B,,B,-]2 [B,,B,]2 B,,>B,, | x8 |[M:9/8] x9 |[M:4/4] x8 |[M:3/4] x6 |] %19
V:4
 x8 | x8 | x8 | x6[K:treble] x2 | x6[K:bass] x2 | x8 |[M:7/8] x7 |[M:1/4] x2 | %8
[M:4/4] x3/2[K:treble] x9/2[K:bass] x2 |[M:3/4] x6 |[M:1/4][K:treble] x2 | %11
[M:4/4][K:bass] z4 z2 B,,2 | x8 | x8 | x8 | x8 |[M:9/8] x9 |[M:4/4] x8 |[M:3/4] x6 |] %19
V:5
 x8 | x8 | x8 | x8 | x8 | x8 |[M:7/8] x7 |[M:1/4] x2 |[M:4/4] x8 |[M:3/4] x6 |[M:1/4] x2 | %11
[M:4/4] x8 | z2 G4 z2 | x8 | z2[K:bass] F,2 F,2 [F,B,D]>[F,CE] | x8 |[M:9/8] x9 |[M:4/4] x8 | %18
[M:3/4] x6 |] %19

